src/next/cmd/sc_fontworkshapetype.fontwork-stop.svg

<svg height="16" viewBox="0 0 16 16" width="16" xmlns="http://www.w3.org/2000/svg" xmlns:xlink="http://www.w3.org/1999/xlink"><linearGradient id="a" gradientUnits="userSpaceOnUse" x1="56" x2="56" y1="128" y2="0"><stop offset="0" stop-color="#fff"/><stop offset=".46428573" stop-color="#fff"/><stop offset=".78125" stop-color="#f1f1f1"/><stop offset=".90625" stop-color="#eaeaea"/><stop offset="1" stop-color="#dfdfdf"/></linearGradient><linearGradient id="b" gradientUnits="userSpaceOnUse" x1="56" x2="56" y1="128" y2="0"><stop offset="0" stop-color="#7c9fcf"/><stop offset=".5" stop-color="#7c9ece"/><stop offset="1" stop-color="#7b9dcf"/></linearGradient><g transform="scale(.125)"><path d="m32 15.9375a8.0639109 8.0639109 0 0 0 -5.701172 2.361328l-23.9999999 24a8.0639109 8.0639109 0 0 0 -2.3613281 5.701172v32a8.0639109 8.0639109 0 0 0 2.3613281 5.701172l23.9999999 23.999998a8.0639109 8.0639109 0 0 0 5.701172 2.36133h64a8.0639109 8.0639109 0 0 0 5.70117-2.36133l24-23.999998a8.0639109 8.0639109 0 0 0 2.36133-5.701172v-32a8.0639109 8.0639109 0 0 0 -2.36133-5.701172l-24-24a8.0639109 8.0639109 0 0 0 -5.70117-2.361328z" fill="url(#b)"/><path d="m32 24-23.9999977 24-.0000023 32 24 24h64l24-24v-32l-24-24z" fill="url(#a)"/></g></svg>

<?xml version="1.0" encoding="UTF-8" standalone="no"?>
<svg
   xmlns:dc="http://purl.org/dc/elements/1.1/"
   xmlns:cc="http://creativecommons.org/ns#"
   xmlns:rdf="http://www.w3.org/1999/02/22-rdf-syntax-ns#"
   xmlns:svg="http://www.w3.org/2000/svg"
   xmlns="http://www.w3.org/2000/svg"
   xmlns:sodipodi="http://sodipodi.sourceforge.net/DTD/sodipodi-0.dtd"
   xmlns:inkscape="http://www.inkscape.org/namespaces/inkscape"
   height="16"
   viewBox="0 0 16 16"
   width="16"
   version="1.1"
   id="svg24"
   sodipodi:docname="sc_fontworkshapetype.fontwork-stop.svg"
   inkscape:version="0.92.3 (2405546, 2018-03-11)"
   inkscape:export-filename="/home/rizmut/Dokumen/Rizmut/Github/libreoffice-style-karasa-jaga/src/next/cmd/sc_fontworkshapetype.fontwork-stop.png"
   inkscape:export-xdpi="96"
   inkscape:export-ydpi="96">
  <metadata
     id="metadata30">
    <rdf:RDF>
      <cc:Work
         rdf:about="">
        <dc:format>image/svg+xml</dc:format>
        <dc:type
           rdf:resource="http://purl.org/dc/dcmitype/StillImage" />
        <dc:title></dc:title>
      </cc:Work>
    </rdf:RDF>
  </metadata>
  <defs
     id="defs28" />
  <sodipodi:namedview
     pagecolor="#ffffff"
     bordercolor="#666666"
     borderopacity="1"
     objecttolerance="10"
     gridtolerance="10"
     guidetolerance="10"
     inkscape:pageopacity="0"
     inkscape:pageshadow="2"
     inkscape:window-width="1366"
     inkscape:window-height="714"
     id="namedview26"
     showgrid="false"
     inkscape:zoom="5.2149125"
     inkscape:cx="3.7054076"
     inkscape:cy="18.655984"
     inkscape:window-x="0"
     inkscape:window-y="28"
     inkscape:window-maximized="1"
     inkscape:current-layer="svg24" />
  <linearGradient
     id="a"
     gradientUnits="userSpaceOnUse"
     x1="56"
     x2="56"
     y1="128"
     y2="0">
    <stop
       offset="0"
       stop-color="#fff"
       id="stop2" />
    <stop
       offset=".46428573"
       stop-color="#fff"
       id="stop4" />
    <stop
       offset=".78125"
       stop-color="#f1f1f1"
       id="stop6" />
    <stop
       offset=".90625"
       stop-color="#eaeaea"
       id="stop8" />
    <stop
       offset="1"
       stop-color="#dfdfdf"
       id="stop10" />
  </linearGradient>
  <linearGradient
     id="b"
     gradientUnits="userSpaceOnUse"
     x1="56"
     x2="56"
     y1="128"
     y2="0">
    <stop
       offset="0"
       stop-color="#7c9fcf"
       id="stop13" />
    <stop
       offset=".5"
       stop-color="#7c9ece"
       id="stop15" />
    <stop
       offset="1"
       stop-color="#7b9dcf"
       id="stop17" />
  </linearGradient>
  <g
     id="g842"
     transform="scale(0.125)">
    <path
       id="path20"
       d="m 32,15.9375 a 8.0639109,8.0639109 0 0 0 -5.701172,2.361328 l -23.9999999,24 A 8.0639109,8.0639109 0 0 0 -0.0625,48 v 32 a 8.0639109,8.0639109 0 0 0 2.3613281,5.701172 L 26.298828,109.70117 A 8.0639109,8.0639109 0 0 0 32,112.0625 h 64 a 8.0639109,8.0639109 0 0 0 5.70117,-2.36133 l 24,-23.999998 A 8.0639109,8.0639109 0 0 0 128.0625,80 V 48 a 8.0639109,8.0639109 0 0 0 -2.36133,-5.701172 l -24,-24 A 8.0639109,8.0639109 0 0 0 96,15.9375 Z"
       style="fill:url(#b)"
       inkscape:connector-curvature="0" />
    <path
       id="path22"
       d="M 32,24 8.0000023,48 8,80 32,104 H 96 L 120,80 V 48 L 96,24 Z"
       style="fill:url(#a)"
       inkscape:connector-curvature="0" />
  </g>
</svg>
